X:10199
%7969
T:Jig of Slurs
M:6/8
L:1/8
S:Boys of the Lough; Johnny Cunningham
K:Cmaj
Gcc cBc|Acc Gcc|Acc Gcc|Add dcA|!
Gcc cBc|Acc Gcc|Acc Bcd|ecB c2A:|!
